202404-ahaslides-april/assets/images/icon-users.svg

<svg width="29" height="20" viewBox="0 0 29 20" fill="none" xmlns="http://www.w3.org/2000/svg">
<path d="M9.94981 12.5C6.55681 12.5 -0.200195 14.1714 -0.200195 17.5V20H20.0998V17.5C20.0998 14.1714 13.3428 12.5 9.94981 12.5ZM3.19281 17.1429C4.41081 16.3143 7.3543 15.3571 9.94981 15.3571C12.5453 15.3571 15.4888 16.3143 16.7068 17.1429H3.19281ZM9.94981 10C12.7483 10 15.0248 7.75714 15.0248 5C15.0248 2.24286 12.7483 0 9.94981 0C7.15131 0 4.8748 2.24286 4.8748 5C4.8748 7.75714 7.15131 10 9.94981 10ZM9.94981 2.85714C11.1533 2.85714 12.1248 3.81429 12.1248 5C12.1248 6.18571 11.1533 7.14286 9.94981 7.14286C8.74631 7.14286 7.77481 6.18571 7.77481 5C7.77481 3.81429 8.74631 2.85714 9.94981 2.85714ZM20.1578 12.5857C21.8398 13.7857 22.9998 15.3857 22.9998 17.5V20H28.7998V17.5C28.7998 14.6143 23.7248 12.9714 20.1578 12.5857ZM18.6498 10C21.4483 10 23.7248 7.75714 23.7248 5C23.7248 2.24286 21.4483 0 18.6498 0C17.8668 0 17.1418 0.185714 16.4748 0.5C17.3883 1.77143 17.9248 3.32857 17.9248 5C17.9248 6.67143 17.3883 8.22857 16.4748 9.5C17.1418 9.81429 17.8668 10 18.6498 10Z" fill="black"/>
</svg>

<svg xmlns="http://www.w3.org/2000/svg" width="29" height="20" fill="none" viewBox="0 0 29 20">
  <path fill="#000" d="M9.95 12.5c-3.393 0-10.15 1.671-10.15 5V20h20.3v-2.5c0-3.329-6.757-5-10.15-5Zm-6.757 4.643c1.218-.829 4.161-1.786 6.757-1.786 2.595 0 5.539.957 6.757 1.786H3.193ZM9.95 10c2.798 0 5.075-2.243 5.075-5S12.748 0 9.95 0c-2.8 0-5.075 2.243-5.075 5s2.276 5 5.075 5Zm0-7.143c1.203 0 2.175.957 2.175 2.143s-.972 2.143-2.175 2.143c-1.204 0-2.175-.957-2.175-2.143s.971-2.143 2.175-2.143Zm10.208 9.729C21.84 13.786 23 15.386 23 17.5V20h5.8v-2.5c0-2.886-5.075-4.529-8.642-4.914ZM18.65 10c2.798 0 5.075-2.243 5.075-5s-2.277-5-5.075-5c-.783 0-1.508.186-2.175.5a7.694 7.694 0 0 1 1.45 4.5 7.694 7.694 0 0 1-1.45 4.5c.667.314 1.392.5 2.175.5Z"/>
</svg>
